X: 2
T: Miss Nora Kindness
C: Muriel Johnstone
R: reel
M: C|
L: 1/8
K: G
|: "G"DGFG     BGFG |  "G"DBGB   "C"AGEG \
|  "G"DGBG "Am"ABce |1 "G"d3B   "D7"AGAB :|2 "G"d3g "D7"abc'b ||
[| "G"bgdB     GABG |  "D"Add^c     d2ga \
|  "G"bgdB "Em"GABG | "Am"EAA^G "D7"A2ga |]
[| "G"bgdB     GABG |  "D"Add^c     d2Bd \
| "Am"cBAB "D7"cdef |  "G"g2 "D7"(3agf "G"g2z2 |]
